assets/landing_icons/stats_icons/github.svg

<svg width="16" height="16" viewBox="0 0 16 16" fill="none" xmlns="http://www.w3.org/2000/svg">
<g clip-path="url(#clip0_95_4787)">
<path d="M7.99991 0.587524C3.8009 0.587524 0.399902 3.98851 0.399902 8.1875C0.399902 11.5505 2.5754 14.391 5.5964 15.398C5.9764 15.4645 6.1189 15.2365 6.1189 15.037C6.1189 14.8565 6.1094 14.258 6.1094 13.6215C4.1999 13.973 3.7059 13.156 3.5539 12.7285C3.4684 12.51 3.0979 11.8355 2.7749 11.655C2.5089 11.5125 2.1289 11.161 2.7654 11.1515C3.3639 11.142 3.7914 11.7025 3.9339 11.9305C4.6179 13.08 5.7104 12.757 6.1474 12.5575C6.2139 12.0635 6.4134 11.731 6.63191 11.541C4.9409 11.351 3.1739 10.6955 3.1739 7.7885C3.1739 6.962 3.4684 6.27801 3.9529 5.74601C3.8769 5.55601 3.6109 4.77701 4.0289 3.73201C4.0289 3.73201 4.6654 3.53251 6.1189 4.51101C6.72691 4.34001 7.37291 4.25451 8.01891 4.25451C8.66491 4.25451 9.31091 4.34001 9.91891 4.51101C11.3724 3.52301 12.0089 3.73201 12.0089 3.73201C12.4269 4.77701 12.1609 5.55601 12.0849 5.74601C12.5694 6.27801 12.8639 6.9525 12.8639 7.7885C12.8639 10.705 11.0874 11.351 9.39641 11.541C9.67191 11.7785 9.90941 12.2345 9.90941 12.947C9.90941 13.9635 9.89991 14.7805 9.89991 15.037C9.89991 15.2365 10.0424 15.474 10.4224 15.398C13.516 14.3536 15.5991 11.4527 15.5999 8.1875C15.5999 3.98851 12.1989 0.587524 7.99991 0.587524Z" fill="#82799E"/>
</g>
<defs>
<clipPath id="clip0_95_4787">
<rect width="16" height="16" fill="white"/>
</clipPath>
</defs>
</svg>

<svg xmlns="http://www.w3.org/2000/svg" width="16" height="16" fill="none" viewBox="0 0 16 16"><g clip-path="url(#a)"><path fill="#82799E" d="M8 .588a7.6 7.6 0 0 0-7.6 7.6 7.595 7.595 0 0 0 5.196 7.21c.38.066.523-.162.523-.361 0-.18-.01-.779-.01-1.416-1.91.352-2.403-.465-2.555-.893-.086-.218-.456-.893-.78-1.073-.265-.143-.645-.494-.009-.503.599-.01 1.026.55 1.169.779.684 1.149 1.776.826 2.213.627.067-.495.266-.827.485-1.017-1.691-.19-3.458-.846-3.458-3.753 0-.826.294-1.51.779-2.042-.076-.19-.342-.969.076-2.014 0 0 .636-.2 2.09.779a7 7 0 0 1 1.9-.256c.646 0 1.292.085 1.9.256 1.453-.988 2.09-.779 2.09-.779.418 1.045.152 1.824.076 2.014a2.94 2.94 0 0 1 .779 2.042c0 2.917-1.777 3.563-3.468 3.753.276.237.513.694.513 1.406 0 1.017-.01 1.834-.01 2.09 0 .2.143.437.523.361a7.61 7.61 0 0 0 5.178-7.21c0-4.2-3.401-7.6-7.6-7.6"/></g><defs><clipPath id="a"><path fill="#fff" d="M0 0h16v16H0z"/></clipPath></defs></svg>
